logos/open-neuroscience.svg

<?xml version="1.0" encoding="UTF-8"?>
<!DOCTYPE svg PUBLIC "-//W3C//DTD SVG 1.1//EN" "http://www.w3.org/Graphics/SVG/1.1/DTD/svg11.dtd">
<svg xmlns="http://www.w3.org/2000/svg" version="1.1" width="200px" height="200px" style="shape-rendering:geometricPrecision; text-rendering:geometricPrecision; image-rendering:optimizeQuality; fill-rule:evenodd; clip-rule:evenodd" xmlns:xlink="http://www.w3.org/1999/xlink">
<g><path style="opacity:1" fill="#f1f2f4" d="M -0.5,-0.5 C 66.1667,-0.5 132.833,-0.5 199.5,-0.5C 199.5,66.1667 199.5,132.833 199.5,199.5C 132.833,199.5 66.1667,199.5 -0.5,199.5C -0.5,132.833 -0.5,66.1667 -0.5,-0.5 Z"/></g>
<g><path style="opacity:1" fill="#4d5158" d="M 53.5,57.5 C 64.7833,55.9821 74.2833,59.3155 82,67.5C 84.6096,73.2621 85.6096,79.2621 85,85.5C 81.9017,91.3189 77.9017,91.9856 73,87.5C 73.5602,77.5943 69.0602,71.5943 59.5,69.5C 53.6421,69.864 50.1421,72.864 49,78.5C 48.6667,88.1667 48.3333,97.8333 48,107.5C 45.8387,111.124 42.672,112.291 38.5,111C 36.9512,109.786 35.7845,108.286 35,106.5C 34.3333,96.5 34.3333,86.5 35,76.5C 38.0525,66.9495 44.2191,60.6161 53.5,57.5 Z"/></g>
<g><path style="opacity:1" fill="#4d525a" d="M 127.5,57.5 C 143.557,55.0953 154.057,61.4286 159,76.5C 159.667,86.5 159.667,96.5 159,106.5C 155.819,112.252 151.819,112.919 147,108.5C 145.74,98.2393 145.073,87.906 145,77.5C 138.774,67.7831 131.774,67.1164 124,75.5C 122.847,78.7111 122.18,82.0445 122,85.5C 118.797,91.1356 114.797,91.8023 110,87.5C 108.041,81.2709 108.707,75.2709 112,69.5C 113.833,67 115.667,64.5 117.5,62C 120.815,60.1702 124.149,58.6702 127.5,57.5 Z"/></g>
<g><path style="opacity:1" fill="#4b5057" d="M 75.5,105.5 C 77.8568,105.337 80.1902,105.503 82.5,106C 83.7014,106.903 84.5348,108.069 85,109.5C 84.6409,121.199 90.1409,126.366 101.5,125C 103.587,124.208 105.421,123.041 107,121.5C 108.408,116.547 109.908,111.713 111.5,107C 119.264,103.747 122.931,106.414 122.5,115C 121.653,122.36 118.653,128.694 113.5,134C 105.153,137.355 96.4862,138.355 87.5,137C 74.0516,129.797 70.0516,119.297 75.5,105.5 Z"/></g>
</svg>

<svg xmlns="http://www.w3.org/2000/svg" width="200" height="200" style="shape-rendering:geometricPrecision;text-rendering:geometricPrecision;image-rendering:optimizeQuality;fill-rule:evenodd;clip-rule:evenodd"><path style="opacity:1" fill="#f1f2f4" d="M-.5-.5h200v200H-.5V-.5z"/><path style="opacity:1" fill="#4d5158" d="M53.5 57.5c11.283-1.518 20.783 1.816 28.5 10 2.61 5.762 3.61 11.762 3 18-3.098 5.819-7.098 6.486-12 2 .56-9.906-3.94-15.906-13.5-18-5.858.364-9.358 3.364-10.5 9l-1 29c-2.161 3.624-5.328 4.791-9.5 3.5a11.529 11.529 0 0 1-3.5-4.5c-.667-10-.667-20 0-30 3.053-9.55 9.22-15.884 18.5-19z"/><path style="opacity:1" fill="#4d525a" d="M127.5 57.5c16.057-2.405 26.557 3.929 31.5 19 .667 10 .667 20 0 30-3.181 5.752-7.181 6.419-12 2a269.65 269.65 0 0 1-2-31c-6.226-9.717-13.226-10.384-21-2a34.784 34.784 0 0 0-2 10c-3.203 5.636-7.203 6.302-12 2-1.959-6.23-1.293-12.23 2-18l5.5-7.5c3.315-1.83 6.649-3.33 10-4.5z"/><path style="opacity:1" fill="#4b5057" d="M75.5 105.5c2.357-.163 4.69.003 7 .5a6.977 6.977 0 0 1 2.5 3.5c-.36 11.699 5.14 16.866 16.5 15.5a15.83 15.83 0 0 0 5.5-3.5 311.256 311.256 0 0 1 4.5-14.5c7.764-3.253 11.431-.586 11 8-.847 7.36-3.847 13.694-9 19-8.347 3.355-17.014 4.355-26 3-13.448-7.203-17.448-17.703-12-31.5z"/></svg>
